;FLAVOR:Marlin
;TIME:3204
;Filament used: 2.01857m
;Layer height: 0.12
;MINX:75.2
;MINY:75.2
;MINZ:0.12
;MAXX:144.8
;MAXY:144.8
;MAXZ:1.2
;Generated with Cura_SteamEngine 4.8.0
M140 S80
M105
M190 S80
M104 S210
M105
M109 S210
M82 ;absolute extrusion mode
M201 X500.00 Y500.00 Z100.00 E5000.00 ;Setup machine max acceleration
M203 X500.00 Y500.00 Z10.00 E50.00 ;Setup machine max feedrate
M204 P500.00 R1000.00 T500.00 ;Setup Print/Retract/Travel acceleration
M205 X8.00 Y8.00 Z0.40 E5.00 ;Setup Jerk
M220 S100 ;Reset Feedrate
M221 S100 ;Reset Flowrate

G28 ;Home

G92 E0 ;Reset Extruder
G1 Z2.0 F3000 ;Move Z Axis up
G1 X10.1 Y20 Z0.28 F5000.0 ;Move to start position
G1 X10.1 Y200.0 Z0.28 F1500.0 E15 ;Draw the first line
G1 X10.4 Y200.0 Z0.28 F5000.0 ;Move to side a little
G1 X10.4 Y20 Z0.28 F1500.0 E30 ;Draw the second line
G92 E0 ;Reset Extruder
G1 Z2.0 F3000 ;Move Z Axis up

G92 E0
G92 E0
G1 F2700 E-5
;LAYER_COUNT:10
;LAYER:0
M107
;MESH:test_cube_3.STL
G0 F6000 X144 Y144 Z0.12
;TYPE:WALL-INNER
G1 F2700 E0
G1 F1200 X76 Y144 E1.35701
G1 X76 Y76 E2.71403
G1 X144 Y76 E4.07104
G1 X144 Y144 E5.42805
G0 F6000 X144.4 Y144.4
G1 F1200 X75.6 Y144.4 E6.80103
G1 X75.6 Y75.6 E8.17401
G1 X144.4 Y75.6 E9.54699
G1 X144.4 Y144.4 E10.91997
G0 F6000 X144.8 Y144.8
;TYPE:WALL-OUTER
G1 F1200 X75.2 Y144.8 E12.30891
G1 X75.2 Y75.2 E13.69785
G1 X144.8 Y75.2 E15.0868
G1 X144.8 Y144.8 E16.47574
G0 F6000 X144.53 Y144.53
G0 X143.89 Y143.61
G0 X143.61 Y143.61
;TYPE:SKIN
G1 F1200 X76.39 Y143.61 E17.81719
G1 X76.39 Y76.39 E19.15864
G1 X143.61 Y76.39 E20.50008
G1 X143.61 Y143.61 E21.84153
G1 F2700 E16.84153
G0 F6000 X143.89 Y143.61
G0 X143.89 Y76.698
G0 X143.449 Y76.698
G1 F2700 E21.84153
G1 F1200 X143.3 Y76.549 E21.84574
G0 F6000 X142.735 Y76.549
G1 F1200 X143.449 Y77.264 E21.8659
G0 F6000 X143.449 Y77.829
G1 F1200 X142.169 Y76.549 E21.90203
G0 F6000 X141.603 Y76.549
G1 F1200 X143.449 Y78.395 E21.95412
G0 F6000 X143.449 Y78.961
G1 F1200 X141.038 Y76.549 E22.02218
G0 F6000 X140.472 Y76.549
G1 F1200 X143.449 Y79.526 E22.1062
G0 F6000 X143.449 Y80.092
G1 F1200 X139.906 Y76.549 E22.20619
G0 F6000 X139.341 Y76.549
G1 F1200 X143.449 Y80.658 E22.32214
G0 F6000 X143.449 Y81.223
G1 F1200 X138.775 Y76.549 E22.45405
G0 F6000 X138.209 Y76.549
G1 F1200 X143.449 Y81.789 E22.60194
G0 F6000 X143.449 Y82.355
G1 F1200 X137.643 Y76.549 E22.76579
G0 F6000 X137.078 Y76.549
G1 F1200 X143.449 Y82.92 E22.9456
G0 F6000 X143.449 Y83.486
G1 F1200 X136.512 Y76.549 E23.14137
G0 F6000 X135.946 Y76.549
G1 F1200 X143.449 Y84.052 E23.35312
G0 F6000 X143.449 Y84.618
G1 F1200 X135.381 Y76.549 E23.58084
G0 F6000 X134.815 Y76.549
G1 F1200 X143.449 Y85.183 E23.82451
G0 F6000 X143.449 Y85.749
G1 F1200 X134.249 Y76.549 E24.08415
G0 F6000 X133.684 Y76.549
G1 F1200 X143.449 Y86.315 E24.35975
G0 F6000 X143.449 Y86.88
G1 F1200 X133.118 Y76.549 E24.65132
G0 F6000 X132.552 Y76.549
G1 F1200 X143.449 Y87.446 E24.95885
G0 F6000 X143.449 Y88.012
G1 F1200 X131.987 Y76.549 E25.28235
G0 F6000 X131.421 Y76.549
G1 F1200 X143.449 Y88.577 E25.62181
G0 F6000 X143.449 Y89.143
G1 F1200 X130.855 Y76.549 E25.97724
G0 F6000 X130.29 Y76.549
G1 F1200 X143.449 Y89.709 E26.34862
G0 F6000 X143.449 Y90.274
G1 F1200 X129.724 Y76.549 E26.73597
G0 F6000 X129.158 Y76.549
G1 F1200 X143.449 Y90.84 E27.1393
G0 F6000 X143.449 Y91.406
G1 F1200 X128.593 Y76.549 E27.55858
G0 F6000 X128.027 Y76.549
G1 F1200 X143.449 Y91.971 E27.99382
G0 F6000 X143.449 Y92.537
G1 F1200 X127.461 Y76.549 E28.44504
G0 F6000 X126.895 Y76.549
G1 F1200 X143.449 Y93.103 E28.91223
G0 F6000 X143.449 Y93.669
G1 F1200 X126.33 Y76.549 E29.39538
G0 F6000 X125.764 Y76.549
G1 F1200 X143.449 Y94.234 E29.89449
G0 F6000 X143.449 Y94.8
G1 F1200 X125.198 Y76.549 E30.40957
G0 F6000 X124.633 Y76.549
G1 F1200 X143.449 Y95.366 E30.94061
G0 F6000 X143.449 Y95.931
G1 F1200 X124.067 Y76.549 E31.48761
G0 F6000 X123.501 Y76.549
G1 F1200 X143.449 Y96.497 E32.05059
G0 F6000 X143.449 Y97.063
G1 F1200 X122.936 Y76.549 E32.62952
G0 F6000 X122.37 Y76.549
G1 F1200 X143.449 Y97.628 E33.22442
G0 F6000 X143.449 Y98.194
G1 F1200 X121.804 Y76.549 E33.83529
G0 F6000 X121.239 Y76.549
G1 F1200 X143.449 Y98.76 E34.46211
G0 F6000 X143.449 Y99.325
G1 F1200 X120.673 Y76.549 E35.1049
G0 F6000 X120.107 Y76.549
G1 F1200 X143.449 Y99.891 E35.76366
G0 F6000 X143.449 Y100.457
G1 F1200 X119.542 Y76.549 E36.43839
G0 F6000 X118.976 Y76.549
G1 F1200 X143.449 Y101.022 E37.12907
G0 F6000 X143.449 Y101.588
G1 F1200 X118.41 Y76.549 E37.83572
G0 F6000 X117.845 Y76.549
G1 F1200 X143.449 Y102.154 E38.55834
G0 F6000 X143.449 Y102.719
G1 F1200 X117.279 Y76.549 E39.29691
G0 F6000 X116.713 Y76.549
G1 F1200 X143.449 Y103.285 E40.05146
G0 F6000 X143.449 Y103.851
G1 F1200 X116.147 Y76.549 E40.82198
G0 F6000 X115.582 Y76.549
G1 F1200 X143.449 Y104.417 E41.60846
G0 F6000 X143.449 Y104.982
G1 F1200 X115.016 Y76.549 E42.4109
G0 F6000 X114.45 Y76.549
G1 F1200 X143.449 Y105.548 E43.22931
G0 F6000 X143.449 Y106.114
G1 F1200 X113.885 Y76.549 E44.06369
G0 F6000 X113.319 Y76.549
G1 F1200 X143.449 Y106.679 E44.91402
G0 F6000 X143.449 Y107.245
G1 F1200 X112.753 Y76.549 E45.78033
G0 F6000 X112.188 Y76.549
G1 F1200 X143.449 Y107.811 E46.6626
G0 F6000 X143.449 Y108.376
G1 F1200 X111.622 Y76.549 E47.56082
G0 F6000 X111.056 Y76.549
G1 F1200 X143.449 Y108.942 E48.47502
G0 F6000 X143.449 Y109.508
G1 F1200 X110.491 Y76.549 E49.40518
G0 F6000 X109.925 Y76.549
G1 F1200 X143.449 Y110.073 E50.3513
G0 F6000 X143.449 Y110.639
G1 F1200 X109.359 Y76.549 E51.3134
G0 F6000 X108.794 Y76.549
G1 F1200 X143.449 Y111.205 E52.29145
G0 F6000 X143.449 Y111.77
G1 F1200 X108.228 Y76.549 E53.28546
G0 F6000 X107.662 Y76.549
G1 F1200 X143.449 Y112.336 E54.29545
G0 F6000 X143.449 Y112.902
G1 F1200 X107.096 Y76.549 E55.32141
G0 F6000 X106.531 Y76.549
G1 F1200 X143.449 Y113.468 E56.36333
G0 F6000 X143.449 Y114.033
G1 F1200 X105.965 Y76.549 E57.42121
G0 F6000 X105.399 Y76.549
G1 F1200 X143.449 Y114.599 E58.49506
G0 F6000 X143.449 Y115.165
G1 F1200 X104.834 Y76.549 E59.58488
G0 F6000 X104.268 Y76.549
G1 F1200 X143.449 Y115.73 E60.69065
G0 F6000 X143.449 Y116.296
G1 F1200 X103.702 Y76.549 E61.81239
G0 F6000 X103.137 Y76.549
G1 F1200 X143.449 Y116.862 E62.9501
G0 F6000 X143.449 Y117.427
G1 F1200 X102.571 Y76.549 E64.10377
G0 F6000 X102.005 Y76.549
G1 F1200 X143.449 Y117.993 E65.2734
G0 F6000 X143.449 Y118.559
G1 F1200 X101.44 Y76.549 E66.459
G0 F6000 X100.874 Y76.549
G1 F1200 X143.449 Y119.124 E67.66056
G0 F6000 X143.449 Y119.69
G1 F1200 X100.308 Y76.549 E68.87809
G0 F6000 X99.743 Y76.549
G1 F1200 X143.449 Y120.256 E70.11159
G0 F6000 X143.449 Y120.821
G1 F1200 X99.177 Y76.549 E71.36104
G0 F6000 X98.611 Y76.549
G1 F1200 X143.449 Y121.387 E72.62646
G0 F6000 X143.449 Y121.953
G1 F1200 X98.046 Y76.549 E73.90785
G0 F6000 X97.48 Y76.549
G1 F1200 X143.449 Y122.518 E75.20519
G0 F6000 X143.449 Y123.084
G1 F1200 X96.914 Y76.549 E76.51851
G0 F6000 X96.348 Y76.549
G1 F1200 X143.449 Y123.65 E77.8478
G0 F6000 X143.449 Y124.216
G1 F1200 X95.783 Y76.549 E79.19305
G0 F6000 X95.217 Y76.549
G1 F1200 X143.449 Y124.781 E80.55427
G0 F6000 X143.449 Y125.347
G1 F1200 X94.651 Y76.549 E81.93145
G0 F6000 X94.086 Y76.549
G1 F1200 X143.449 Y125.913 E83.32459
G0 F6000 X143.449 Y126.478
G1 F1200 X93.52 Y76.549 E84.7337
G0 F6000 X92.954 Y76.549
G1 F1200 X143.449 Y127.044 E86.15878
G0 F6000 X143.449 Y127.61
G1 F1200 X92.389 Y76.549 E87.59981
G0 F6000 X91.823 Y76.549
G1 F1200 X143.449 Y128.175 E89.05681
G0 F6000 X143.449 Y128.741
G1 F1200 X91.257 Y76.549 E90.52978
G0 F6000 X90.692 Y76.549
G1 F1200 X143.449 Y129.307 E92.01871
G0 F6000 X143.449 Y129.872
G1 F1200 X90.126 Y76.549 E93.5236
G0 F6000 X89.56 Y76.549
G1 F1200 X143.449 Y130.438 E95.04447
G0 F6000 X143.449 Y131.004
G1 F1200 X88.995 Y76.549 E96.58129
G0 F6000 X88.429 Y76.549
G1 F1200 X143.449 Y131.569 E98.13407
G0 F6000 X143.449 Y132.135
G1 F1200 X87.863 Y76.549 E99.70283
G0 F6000 X87.297 Y76.549
G1 F1200 X143.449 Y132.701 E101.28756
G0 F6000 X143.449 Y133.267
G1 F1200 X86.732 Y76.549 E102.88825
G0 F6000 X86.166 Y76.549
G1 F1200 X143.449 Y133.832 E104.5049
G0 F6000 X143.449 Y134.398
G1 F1200 X85.6 Y76.549 E106.13753
G0 F6000 X85.035 Y76.549
G1 F1200 X143.449 Y134.964 E107.78611
G0 F6000 X143.449 Y135.529
G1 F1200 X84.469 Y76.549 E109.45065
G0 F6000 X83.903 Y76.549
G1 F1200 X143.449 Y136.095 E111.13117
G0 F6000 X143.449 Y136.661
G1 F1200 X83.338 Y76.549 E112.82765
G0 F6000 X82.772 Y76.549
G1 F1200 X143.449 Y137.226 E114.54008
G0 F6000 X143.449 Y137.792
G1 F1200 X82.206 Y76.549 E116.26849
G0 F6000 X81.641 Y76.549
G1 F1200 X143.449 Y138.358 E118.01286
G0 F6000 X143.449 Y138.923
G1 F1200 X81.075 Y76.549 E119.77319
G0 F6000 X80.509 Y76.549
G1 F1200 X143.449 Y139.489 E121.54949
G0 F6000 X143.449 Y140.055
G1 F1200 X79.944 Y76.549 E123.34176
G0 F6000 X79.378 Y76.549
G1 F1200 X143.449 Y140.62 E125.14998
G0 F6000 X143.449 Y141.186
G1 F1200 X78.812 Y76.549 E126.97417
G0 F6000 X78.247 Y76.549
G1 F1200 X143.449 Y141.752 E128.81433
G0 F6000 X143.449 Y142.317
G1 F1200 X77.681 Y76.549 E130.67044
G0 F6000 X77.115 Y76.549
G1 F1200 X143.449 Y142.883 E132.54253
G0 F6000 X143.449 Y143.449
G1 F1200 X76.549 Y76.549 E134.4306
G0 F6000 X76.549 Y77.115
G1 F1200 X142.883 Y143.449 E136.30268
G0 F6000 X142.317 Y143.449
G1 F1200 X76.549 Y77.681 E138.1588
G0 F6000 X76.549 Y78.247
G1 F1200 X141.752 Y143.449 E139.99895
G0 F6000 X141.186 Y143.449
G1 F1200 X76.549 Y78.812 E141.82315
G0 F6000 X76.549 Y79.378
G1 F1200 X140.62 Y143.449 E143.63137
G0 F6000 X140.055 Y143.449
G1 F1200 X76.549 Y79.944 E145.42363
G0 F6000 X76.549 Y80.509
G1 F1200 X139.489 Y143.449 E147.19994
G0 F6000 X138.923 Y143.449
G1 F1200 X76.549 Y81.075 E148.96027
G0 F6000 X76.549 Y81.641
G1 F1200 X138.358 Y143.449 E150.70464
G0 F6000 X137.792 Y143.449
G1 F1200 X76.549 Y82.206 E152.43305
G0 F6000 X76.549 Y82.772
G1 F1200 X137.226 Y143.449 E154.14548
G0 F6000 X136.661 Y143.449
G1 F1200 X76.549 Y83.338 E155.84196
G0 F6000 X76.549 Y83.903
G1 F1200 X136.095 Y143.449 E157.52247
G0 F6000 X135.529 Y143.449
G1 F1200 X76.549 Y84.469 E159.18702
G0 F6000 X76.549 Y85.035
G1 F1200 X134.964 Y143.449 E160.8356
G0 F6000 X134.398 Y143.449
G1 F1200 X76.549 Y85.6 E162.46822
G0 F6000 X76.549 Y86.166
G1 F1200 X133.832 Y143.449 E164.08487
G0 F6000 X133.267 Y143.449
G1 F1200 X76.549 Y86.732 E165.68557
G0 F6000 X76.549 Y87.297
G1 F1200 X132.701 Y143.449 E167.2703
G0 F6000 X132.135 Y143.449
G1 F1200 X76.549 Y87.863 E168.83905
G0 F6000 X76.549 Y88.429
G1 F1200 X131.569 Y143.449 E170.39184
G0 F6000 X131.004 Y143.449
G1 F1200 X76.549 Y88.995 E171.92866
G0 F6000 X76.549 Y89.56
G1 F1200 X130.438 Y143.449 E173.44952
G0 F6000 X129.872 Y143.449
G1 F1200 X76.549 Y90.126 E174.95441
G0 F6000 X76.549 Y90.692
G1 F1200 X129.307 Y143.449 E176.44334
G0 F6000 X128.741 Y143.449
G1 F1200 X76.549 Y91.257 E177.91632
G0 F6000 X76.549 Y91.823
G1 F1200 X128.175 Y143.449 E179.37331
G0 F6000 X127.61 Y143.449
G1 F1200 X76.549 Y92.389 E180.81435
G0 F6000 X76.549 Y92.954
G1 F1200 X127.044 Y143.449 E182.23943
G0 F6000 X126.478 Y143.449
G1 F1200 X76.549 Y93.52 E183.64853
G0 F6000 X76.549 Y94.086
G1 F1200 X125.913 Y143.449 E185.04168
G0 F6000 X125.347 Y143.449
G1 F1200 X76.549 Y94.651 E186.41886
G0 F6000 X76.549 Y95.217
G1 F1200 X124.781 Y143.449 E187.78007
G0 F6000 X124.216 Y143.449
G1 F1200 X76.549 Y95.783 E189.12533
G0 F6000 X76.549 Y96.348
G1 F1200 X123.65 Y143.449 E190.45462
G0 F6000 X123.084 Y143.449
G1 F1200 X76.549 Y96.914 E191.76794
G0 F6000 X76.549 Y97.48
G1 F1200 X122.518 Y143.449 E193.06528
G0 F6000 X121.953 Y143.449
G1 F1200 X76.549 Y98.046 E194.34667
G0 F6000 X76.549 Y98.611
G1 F1200 X121.387 Y143.449 E195.61209
G0 F6000 X120.821 Y143.449
G1 F1200 X76.549 Y99.177 E196.86154
G0 F6000 X76.549 Y99.743
G1 F1200 X120.256 Y143.449 E198.09503
G0 F6000 X119.69 Y143.449
G1 F1200 X76.549 Y100.308 E199.31257
G0 F6000 X76.549 Y100.874
G1 F1200 X119.124 Y143.449 E200.51412
G0 F6000 X118.559 Y143.449
G1 F1200 X76.549 Y101.44 E201.69972
G0 F6000 X76.549 Y102.005
G1 F1200 X117.993 Y143.449 E202.86936
G0 F6000 X117.427 Y143.449
G1 F1200 X76.549 Y102.571 E204.02303
G0 F6000 X76.549 Y103.137
G1 F1200 X116.862 Y143.449 E205.16073
G0 F6000 X116.296 Y143.449
G1 F1200 X76.549 Y103.702 E206.28248
G0 F6000 X76.549 Y104.268
G1 F1200 X115.73 Y143.449 E207.38825
G0 F6000 X115.165 Y143.449
G1 F1200 X76.549 Y104.834 E208.47807
G0 F6000 X76.549 Y105.399
G1 F1200 X114.599 Y143.449 E209.55192
G0 F6000 X114.033 Y143.449
G1 F1200 X76.549 Y105.965 E210.6098
G0 F6000 X76.549 Y106.531
G1 F1200 X113.468 Y143.449 E211.65172
G0 F6000 X112.902 Y143.449
G1 F1200 X76.549 Y107.096 E212.67768
G0 F6000 X76.549 Y107.662
G1 F1200 X112.336 Y143.449 E213.68766
G0 F6000 X111.77 Y143.449
G1 F1200 X76.549 Y108.228 E214.68168
G0 F6000 X76.549 Y108.794
G1 F1200 X111.205 Y143.449 E215.65973
G0 F6000 X110.639 Y143.449
G1 F1200 X76.549 Y109.359 E216.62182
G0 F6000 X76.549 Y109.925
G1 F1200 X110.073 Y143.449 E217.56794
G0 F6000 X109.508 Y143.449
G1 F1200 X76.549 Y110.491 E218.4981
G0 F6000 X76.549 Y111.056
G1 F1200 X108.942 Y143.449 E219.4123
G0 F6000 X108.376 Y143.449
G1 F1200 X76.549 Y111.622 E220.31053
G0 F6000 X76.549 Y112.188
G1 F1200 X107.811 Y143.449 E221.1928
G0 F6000 X107.245 Y143.449
G1 F1200 X76.549 Y112.753 E222.05911
G0 F6000 X76.549 Y113.319
G1 F1200 X106.679 Y143.449 E222.90944
G0 F6000 X106.114 Y143.449
G1 F1200 X76.549 Y113.885 E223.74381
G0 F6000 X76.549 Y114.45
G1 F1200 X105.548 Y143.449 E224.56223
G0 F6000 X104.982 Y143.449
G1 F1200 X76.549 Y115.016 E225.36467
G0 F6000 X76.549 Y115.582
G1 F1200 X104.417 Y143.449 E226.15115
G0 F6000 X103.851 Y143.449
G1 F1200 X76.549 Y116.147 E226.92167
G0 F6000 X76.549 Y116.713
G1 F1200 X103.285 Y143.449 E227.67622
G0 F6000 X102.719 Y143.449
G1 F1200 X76.549 Y117.279 E228.41479
G0 F6000 X76.549 Y117.845
G1 F1200 X102.154 Y143.449 E229.13741
G0 F6000 X101.588 Y143.449
G1 F1200 X76.549 Y118.41 E229.84406
G0 F6000 X76.549 Y118.976
G1 F1200 X101.022 Y143.449 E230.53474
G0 F6000 X100.457 Y143.449
G1 F1200 X76.549 Y119.542 E231.20946
G0 F6000 X76.549 Y120.107
G1 F1200 X99.891 Y143.449 E231.86822
G0 F6000 X99.325 Y143.449
G1 F1200 X76.549 Y120.673 E232.51101
G0 F6000 X76.549 Y121.239
G1 F1200 X98.76 Y143.449 E233.13784
G0 F6000 X98.194 Y143.449
G1 F1200 X76.549 Y121.804 E233.74871
G0 F6000 X76.549 Y122.37
G1 F1200 X97.628 Y143.449 E234.3436
G0 F6000 X97.063 Y143.449
G1 F1200 X76.549 Y122.936 E234.92254
G0 F6000 X76.549 Y123.501
G1 F1200 X96.497 Y143.449 E235.48552
G0 F6000 X95.931 Y143.449
G1 F1200 X76.549 Y124.067 E236.03252
G0 F6000 X76.549 Y124.633
G1 F1200 X95.366 Y143.449 E236.56356
G0 F6000 X94.8 Y143.449
G1 F1200 X76.549 Y125.198 E237.07864
G0 F6000 X76.549 Y125.764
G1 F1200 X94.234 Y143.449 E237.57775
G0 F6000 X93.669 Y143.449
G1 F1200 X76.549 Y126.33 E238.0609
G0 F6000 X76.549 Y126.895
G1 F1200 X93.103 Y143.449 E238.52809
G0 F6000 X92.537 Y143.449
G1 F1200 X76.549 Y127.461 E238.97931
G0 F6000 X76.549 Y128.027
G1 F1200 X91.971 Y143.449 E239.41455
G0 F6000 X91.406 Y143.449
G1 F1200 X76.549 Y128.593 E239.83383
G0 F6000 X76.549 Y129.158
G1 F1200 X90.84 Y143.449 E240.23715
G0 F6000 X90.274 Y143.449
G1 F1200 X76.549 Y129.724 E240.6245
G0 F6000 X76.549 Y130.29
G1 F1200 X89.709 Y143.449 E240.99589
G0 F6000 X89.143 Y143.449
G1 F1200 X76.549 Y130.855 E241.35132
G0 F6000 X76.549 Y131.421
G1 F1200 X88.577 Y143.449 E241.69078
G0 F6000 X88.012 Y143.449
G1 F1200 X76.549 Y131.987 E242.01428
G0 F6000 X76.549 Y132.552
G1 F1200 X87.446 Y143.449 E242.32181
G0 F6000 X86.88 Y143.449
G1 F1200 X76.549 Y133.118 E242.61338
G0 F6000 X76.549 Y133.684
G1 F1200 X86.315 Y143.449 E242.88898
G0 F6000 X85.749 Y143.449
G1 F1200 X76.549 Y134.249 E243.14862
